X: 13103
T: Firebird
R: reel
M: 4/4
K: Emajor
|:gf|eB~B2 Bceg|a2ga fB~B2|Bcde f2af|g2eg fedf|
eB~B2 Bceg|a2ga fB~B2|Bcde f2af|1 fedf e2:|2 fedf efga||
|:b3a g3f|eB~B2 Bceg|a3g f3g|abag fega|
b3a g3f|eB~B2 Bceg|a3g f3e|1 defg efga|2 defg e4||

